assets/social-media-management.svg

<?xml version="1.0" encoding="UTF-8"?>
<svg xmlns="http://www.w3.org/2000/svg" id="outline" viewBox="0 0 512 512" width="512" height="512"><path d="M24,374.52051a54.49246,54.49246,0,0,0,8,28.41357V496H48V464h96v32h16V464h55.01562a16.9716,16.9716,0,0,0,14.387-8h102.741A24.00016,24.00016,0,0,0,352.874,419.90723l-84.14355-144.2461a24.00047,24.00047,0,0,0-41.46094,0l-37.6543,64.5503L173.333,328a40.25015,40.25015,0,0,0-24-8H134.62378A23.88238,23.88238,0,0,0,136,312V299.31445l2.34375-2.34375A19.31423,19.31423,0,0,0,124.68652,264H112a24.0275,24.0275,0,0,0-24,24v24a23.88238,23.88238,0,0,0,1.37622,8H78.52051A54.58253,54.58253,0,0,0,24,374.52051ZM78.52051,336h9.47925L75.2002,345.59961l9.5996,12.80078,6.877-5.15771,4.0498,8.10009L92.9668,380.66406,78.14551,362.87891l-12.291,10.24218,16.37525,19.65039L59.3335,411.08862l-9.80225-11.20288A38.51968,38.51968,0,0,1,78.52051,336Zm32.41821,32h2.12256l5.71411,40h-3.02832l-8.98242-10.77881Zm4.11694-16h-6.11132l-4.25733-8.51489L112,338.00024l7.313,5.48487ZM112,320a8.00917,8.00917,0,0,1-8-8v-4.68652L107.31348,304H120v8A8.00917,8.00917,0,0,1,112,320ZM48,422.43311,70.37061,448H48ZM215.01562,448H102.52051A24.00018,24.00018,0,0,1,84.459,439.80469L69.87915,423.14136l22.59546-18.07617,13.37988,16.0559A7.99862,7.99862,0,0,0,112,424h56a8.00221,8.00221,0,0,0,4.4375-1.34375l18.31445-12.209-6.34179,19.02246a8.00056,8.00056,0,0,0,5.64941,10.291l25.19434,6.29883A.98491.98491,0,0,1,215.01562,448ZM160,390.98047v-8.03223l3.37354,2.249Zm81.08984-107.25684a8.00016,8.00016,0,0,1,13.82032,0l84.14355,144.2461A8.00016,8.00016,0,0,1,332.14355,440H230.48486a16.954,16.954,0,0,0-11.35009-9.46191L202.32129,426.334l4.67969-14.03906a19.40293,19.40293,0,0,0,.999-6.1543A14.14049,14.14049,0,0,0,186.01562,394.375l-15.50024,10.3335ZM163.7334,340.80078l17.76562,13.324L171.45,371.35205l-15.01245-10.0083A7.99977,7.99977,0,0,0,144,368v40h-9.06128l-6.66528-46.65723,4.0498-8.10009,6.877,5.15771,9.5996-12.80078L136.00024,336H149.333A24.15289,24.15289,0,0,1,163.7334,340.80078ZM112,280h12.68652a3.31318,3.31318,0,0,1,2.34278,5.65625L124.68555,288H104A8.00917,8.00917,0,0,1,112,280Z"/><circle cx="248" cy="400" r="8"/><rect x="240" y="328" width="16" height="56"/><rect x="16" y="136" width="24" height="16"/><path d="M424,232a23.89033,23.89033,0,0,0-7.57373,1.23169l-59.83154-76.92554a23.98938,23.98938,0,0,0-27.45655-35.30127L276.19751,52.93872a23.99436,23.99436,0,1,0-41.8523-2.59839l-72.00488,72.00488A23.98846,23.98846,0,0,0,129.37622,136H56v16h73.37622a23.99712,23.99712,0,1,0,44.27857-18.34033l72.00488-72.00488a23.93994,23.93994,0,0,0,17.91455,1.11328L316.21,130.44238a23.994,23.994,0,0,0,28.0669,36.0857l59.52587,76.533A23.99219,23.99219,0,1,0,446.62378,264H496V248H446.62378A24.0384,24.0384,0,0,0,424,232ZM152,152a8,8,0,1,1,8-8A8.00917,8.00917,0,0,1,152,152ZM248,40a8,8,0,1,1,8,8A8.00917,8.00917,0,0,1,248,40Zm80,104a8,8,0,1,1,8,8A8.00917,8.00917,0,0,1,328,144Zm96,120a8,8,0,1,1,8-8A8.00917,8.00917,0,0,1,424,264Z"/><path d="M264,128H216a8.00039,8.00039,0,0,0-8,8v56H168a8.00039,8.00039,0,0,0-8,8V304h16V208h32v64h16V144h32V248h16V200h32V312h16V264h32V392h16V320h32V440H376v16h80a8.00039,8.00039,0,0,0,8-8V360a8.00039,8.00039,0,0,0-8-8H416V312a8.00039,8.00039,0,0,0-8-8H368V256a8.00039,8.00039,0,0,0-8-8H320V192a8.00039,8.00039,0,0,0-8-8H272V136A8.00039,8.00039,0,0,0,264,128ZM448,368v72H416V368Z"/></svg>

<svg xmlns="http://www.w3.org/2000/svg" width="512" height="512" xmlns:v="https://vecta.io/nano"><path d="M24 374.521a54.492 54.492 0 0 0 8 28.414V496h16v-32h96v32h16v-32h55.016a16.972 16.972 0 0 0 14.387-8h102.741a24 24 0 0 0 20.73-36.093L268.73 275.661a24 24 0 0 0-41.461 0l-37.654 64.55L173.333 328a40.25 40.25 0 0 0-24-8h-14.709a23.882 23.882 0 0 0 1.376-8v-12.686l2.344-2.344A19.314 19.314 0 0 0 124.687 264H112a24.028 24.028 0 0 0-24 24v24a23.882 23.882 0 0 0 1.376 8H78.521A54.583 54.583 0 0 0 24 374.521zM78.521 336H88l-12.8 9.6 9.6 12.801 6.877-5.158 4.05 8.1-2.76 19.321-14.821-17.785-12.291 10.242 16.375 19.65-22.896 18.317-9.802-11.203A38.52 38.52 0 0 1 78.521 336zm32.418 32h2.123l5.714 40h-3.028l-8.982-10.779zm4.117-16h-6.111l-4.257-8.515L112 338l7.313 5.485zM112 320a8.009 8.009 0 0 1-8-8v-4.687l3.313-3.313H120v8a8.009 8.009 0 0 1-8 8zM48 422.433L70.371 448H48zM215.016 448H102.521a24 24 0 0 1-18.062-8.195l-14.58-16.663 22.595-18.076 13.38 16.056A7.999 7.999 0 0 0 112 424h56a8.002 8.002 0 0 0 4.438-1.344l18.314-12.209-6.342 19.022a8.001 8.001 0 0 0 5.649 10.291l25.194 6.299a.985.985 0 0 1-.238 1.94zM160 390.98v-8.032l3.374 2.249zm81.09-107.257a8 8 0 0 1 13.82 0l84.144 144.246a8 8 0 0 1-6.91 12.03H230.485a16.954 16.954 0 0 0-11.35-9.462l-16.813-4.204 4.68-14.039a19.403 19.403 0 0 0 .999-6.154 14.14 14.14 0 0 0-21.984-11.766l-15.5 10.334zm-77.356 57.077l17.766 13.324-10.049 17.227-15.012-10.008A8 8 0 0 0 144 368v40h-9.061l-6.665-46.657 4.05-8.1 6.877 5.158 9.6-12.801L136 336h13.333a24.153 24.153 0 0 1 14.4 4.801zM112 280h12.687a3.313 3.313 0 0 1 2.343 5.656L124.686 288H104a8.009 8.009 0 0 1 8-8z"/><circle cx="248" cy="400" r="8"/><path d="M240 328h16v56h-16zM16 136h24v16H16zm408 96a23.89 23.89 0 0 0-7.574 1.232l-59.832-76.926a23.989 23.989 0 0 0-27.457-35.301l-52.941-68.066a23.994 23.994 0 1 0-41.852-2.598l-72.005 72.005A23.988 23.988 0 0 0 129.376 136H56v16h73.376a23.997 23.997 0 1 0 44.279-18.34l72.005-72.005a23.94 23.94 0 0 0 17.915 1.113l52.636 67.674a23.994 23.994 0 0 0 28.067 36.086l59.526 76.533A23.992 23.992 0 1 0 446.624 264H496v-16h-49.376A24.038 24.038 0 0 0 424 232zm-272-80a8 8 0 1 1 8-8 8.009 8.009 0 0 1-8 8zm96-112a8 8 0 1 1 8 8 8.009 8.009 0 0 1-8-8zm80 104a8 8 0 1 1 8 8 8.009 8.009 0 0 1-8-8zm96 120a8 8 0 1 1 8-8 8.009 8.009 0 0 1-8 8zM264 128h-48a8 8 0 0 0-8 8v56h-40a8 8 0 0 0-8 8v104h16v-96h32v64h16V144h32v104h16v-48h32v112h16v-48h32v128h16v-72h32v120h-24v16h80a8 8 0 0 0 8-8v-88a8 8 0 0 0-8-8h-40v-40a8 8 0 0 0-8-8h-40v-48a8 8 0 0 0-8-8h-40v-56a8 8 0 0 0-8-8h-40v-48a8 8 0 0 0-8-8zm184 240v72h-32v-72z"/></svg>
